X: 21378
T: Kerry Mills'
R: barndance
M: 4/4
K: Dmajor
|:A<FA>d f2 f2|A<FA>d f2 ef|gfed c2 d2|(3efe (3dcB A2 FG|
A<FA>d f2 f2|A<FA>d f2 ef|gfed c2 d2|1 (3efe dc d2 FG:|2 (3efe dc d3g||
|:fgaf d2 d2|fgaf d2 ef|gfed c2 d2|(3efe (3dcB A3g|
fgaf d2 d2|fgaf d2 ef|gfed c2 d2|1 (3efe dc d3g:|2 (3efe dc d2 FG||

